X: 28793
T: My Love Is On The Ocean
R: reel
M: 4/4
K: Amixolydian
|:eA (3.A.A.A {c}BABd|(3efg fd edBd|eA (3.A.A.A {c}BABd|eg.d.c Bd.d2||
eA (3.A.A.A {c}BABd|(3efg fd edBd|.g2bg .f2af|gef.d Bd.d2:|
|:.a2ab afdf|gdfd edBd|.a2ab .afdf|gdf.d Bd.d2|
.a2ab afd.f|gefd edBd|.g2bg .f2af|gef.d Bd.d2:|

